X:9
T:Mist on the Meadows
M:6/8
R:Jig
S:phelan-2/34
L:1/8
K:G
d | g2B BAB | GBA GBd | g2B BAB | GBd e2f  |
    g2B BAB | GBA GBd | gfe fdB | ABd e2  :|
f | g2g bag | fef afd | g2g bag | fed e2f  |
    g2g bag | fef afd | gfe fdB | ABd e2  :|

